X:812
T:Slievenamon
C:anon.
O:Ireland
B:Francis O'Neill: "The Dance Music of Ireland" (1907) no. 812
R:Hornpipe
M:C|
L:1/8
K:G
(B2{c/B/A/})|G>DB,>D G,>DB,>D|G>BA>G (3(EFE) D>F|G>Bd>f g>dB>d|cBAG Fedc|
B>GF>G (TE>D)B,>D|G>AB>G (3(EFG) D>F|G>Bd>g (3(efg) d>c|B2G2G2::B>c|d>g ({a}(3(g)fg) b>g ({a}(3(g)fg)|d>gb>g a>gf>g|
a>ga>b c'>ba>g|f>gf>e d>gB>^c|d>g ({a}(3(g)fg) b>g ({a}(3(g)fg)|d2 b>g (3(efg) d>c|(3(Bcd) g>d A>dc>A|B2G2G2:|
